assets/Curry rice/Flat/curry_rice_flat.svg

<svg width="32" height="32" viewBox="0 0 32 32" fill="none" xmlns="http://www.w3.org/2000/svg">
<path d="M20.74 29.96H11.46C7.43998 29.96 4.16998 26.7 4.16998 22.67V19.79H28.02V22.67C28.03 26.7 24.77 29.96 20.74 29.96Z" fill="#9B9B9B"/>
<path d="M22.02 13.2801C25.22 13.2801 27.82 15.8801 27.82 19.0801C27.82 22.2801 25.22 24.8801 22.02 24.8801H10.02C6.82 24.8801 4.22 22.2801 4.22 19.0801C4.22 15.8801 6.82 13.2801 10.02 13.2801H22.02ZM22.02 11.0601H10.02C5.59 11.0601 2 14.6501 2 19.0801C2 23.5101 5.59 27.1001 10.02 27.1001H22.02C26.45 27.1001 30.04 23.5101 30.04 19.0801C30.04 14.6501 26.45 11.0601 22.02 11.0601Z" fill="#D3D3D3"/>
<path d="M22.02 13.28C25.22 13.28 27.82 15.88 27.82 19.08C27.82 22.28 25.22 24.88 22.02 24.88H10.02C6.81997 24.88 4.21997 22.28 4.21997 19.08C4.21997 15.88 6.81997 13.28 10.02 13.28H22.02Z" fill="#FF6723"/>
<path d="M13.31 10C9.77004 10 6.78004 12.33 5.79004 15.54C5.44004 16.7 6.32004 17.86 7.53004 17.86H19.08C20.29 17.86 21.18 16.69 20.82 15.54C19.83 12.33 16.84 10 13.31 10Z" fill="#F4F4F4"/>
<path d="M23.88 16.6799C22.77 16.6799 21.86 17.5099 21.74 18.5899C21.73 18.7199 21.83 18.8399 21.96 18.8399H25.8C25.93 18.8399 26.03 18.7299 26.02 18.5899C25.89 17.5199 24.98 16.6799 23.88 16.6799Z" fill="#FCD53F"/>
<path d="M18.51 18.8301C17.4 18.8301 16.49 19.6601 16.37 20.7401C16.36 20.8701 16.46 20.9901 16.59 20.9901H20.43C20.56 20.9901 20.66 20.8801 20.65 20.7401C20.53 19.6601 19.62 18.8301 18.51 18.8301Z" fill="#FCD53F"/>
<path d="M21.16 22.89C21.28 21.81 22.19 20.98 23.3 20.98C24.4 20.98 25.32 21.82 25.44 22.89C25.45 23.03 25.35 23.14 25.22 23.14H21.38C21.25 23.14 21.15 23.02 21.16 22.89Z" fill="#FCD53F"/>
<path d="M15.31 12.21L16.07 12.65C16.24 12.75 16.45 12.69 16.55 12.52C16.65 12.35 16.59 12.14 16.42 12.04L15.65 11.6C15.48 11.5 15.27 11.56 15.17 11.73C15.08 11.89 15.14 12.11 15.31 12.21Z" fill="#D3D3D3"/>
<path d="M13.17 13.6001L13.61 14.3601C13.7 14.5301 13.65 14.7401 13.48 14.8401C13.31 14.9301 13.1 14.8801 13 14.7101L12.56 13.9501C12.47 13.7801 12.52 13.5701 12.69 13.4701C12.86 13.3801 13.07 13.4301 13.17 13.6001Z" fill="#D3D3D3"/>
<path d="M8.64998 14.97L7.88998 15.41C7.71998 15.5 7.49998 15.45 7.40998 15.28C7.30998 15.11 7.36998 14.9 7.53998 14.8L8.29998 14.36C8.46998 14.27 8.67998 14.32 8.77998 14.49C8.86998 14.66 8.81998 14.87 8.64998 14.97Z" fill="#D3D3D3"/>
<path d="M13.82 16.4501L14.62 16.1001C14.8 16.0201 15 16.1001 15.08 16.2801C15.16 16.4601 15.08 16.6601 14.9 16.7401L14.1 17.0901C13.92 17.1701 13.72 17.0901 13.64 16.9101C13.56 16.7301 13.64 16.5301 13.82 16.4501Z" fill="#D3D3D3"/>
<path d="M18.06 15.5901L17.99 16.4601C17.98 16.6501 18.12 16.8201 18.31 16.8301C18.5 16.8401 18.67 16.7001 18.68 16.5101L18.75 15.6401C18.76 15.4501 18.62 15.2801 18.43 15.2701C18.24 15.2501 18.07 15.4001 18.06 15.5901Z" fill="#D3D3D3"/>
<path d="M10.99 16.78L10.23 16.34C10.07 16.24 10.01 16.03 10.11 15.86C10.2 15.69 10.42 15.64 10.58 15.73L11.34 16.17C11.51 16.27 11.57 16.48 11.47 16.65C11.37 16.82 11.16 16.88 10.99 16.78Z" fill="#D3D3D3"/>
<path d="M10.04 12.6701L9.81997 13.5201C9.77997 13.7101 9.88997 13.9001 10.08 13.9401C10.26 13.9901 10.45 13.8801 10.5 13.6901L10.72 12.8401C10.77 12.6501 10.65 12.4601 10.47 12.4101C10.28 12.3701 10.09 12.4901 10.04 12.6701Z" fill="#D3D3D3"/>
<path d="M15.65 15.0101L15.87 14.1601C15.92 13.9801 16.11 13.8601 16.3 13.9101C16.48 13.9601 16.6 14.1501 16.55 14.3401L16.33 15.1901C16.28 15.3701 16.09 15.4901 15.9 15.4401C15.72 15.3901 15.6 15.2001 15.65 15.0101Z" fill="#D3D3D3"/>
<path d="M7.78 20.29C8.21078 20.29 8.56 19.9408 8.56 19.51C8.56 19.0792 8.21078 18.73 7.78 18.73C7.34922 18.73 7 19.0792 7 19.51C7 19.9408 7.34922 20.29 7.78 20.29Z" fill="#00D26A"/>
<path d="M12.88 21.18C13.3108 21.18 13.66 20.8308 13.66 20.4C13.66 19.9692 13.3108 19.62 12.88 19.62C12.4492 19.62 12.1 19.9692 12.1 20.4C12.1 20.8308 12.4492 21.18 12.88 21.18Z" fill="#00D26A"/>
<path d="M10.32 22.91C10.32 23.3408 9.97079 23.69 9.54001 23.69C9.10923 23.69 8.76001 23.3408 8.76001 22.91C8.76001 22.4792 9.10923 22.13 9.54001 22.13C9.97079 22.13 10.32 22.4792 10.32 22.91Z" fill="#00D26A"/>
</svg>

<svg xmlns="http://www.w3.org/2000/svg" width="32" height="32" fill="none"><path fill="#9B9B9B" d="M20.74 29.96h-9.28c-4.02 0-7.29-3.26-7.29-7.29v-2.88h23.85v2.88a7.27 7.27 0 0 1-7.28 7.29Z"/><path fill="#D3D3D3" d="M22.02 13.28c3.2 0 5.8 2.6 5.8 5.8 0 3.2-2.6 5.8-5.8 5.8h-12c-3.2 0-5.8-2.6-5.8-5.8 0-3.2 2.6-5.8 5.8-5.8h12Zm0-2.22h-12A8.02 8.02 0 0 0 2 19.08a8.02 8.02 0 0 0 8.02 8.02h12a8.02 8.02 0 0 0 8.02-8.02 8.02 8.02 0 0 0-8.02-8.02Z"/><path fill="#FF6723" d="M22.02 13.28c3.2 0 5.8 2.6 5.8 5.8 0 3.2-2.6 5.8-5.8 5.8h-12c-3.2 0-5.8-2.6-5.8-5.8 0-3.2 2.6-5.8 5.8-5.8h12Z"/><path fill="#F4F4F4" d="M13.31 10c-3.54 0-6.53 2.33-7.52 5.54-.35 1.16.53 2.32 1.74 2.32h11.55c1.21 0 2.1-1.17 1.74-2.32A7.863 7.863 0 0 0 13.31 10Z"/><path fill="#FCD53F" d="M23.88 16.68c-1.11 0-2.02.83-2.14 1.91-.01.13.09.25.22.25h3.84c.13 0 .23-.11.22-.25a2.17 2.17 0 0 0-2.14-1.91ZM18.51 18.83c-1.11 0-2.02.83-2.14 1.91-.01.13.09.25.22.25h3.84c.13 0 .23-.11.22-.25a2.147 2.147 0 0 0-2.14-1.91ZM21.16 22.89a2.147 2.147 0 0 1 2.14-1.91c1.1 0 2.02.84 2.14 1.91.01.14-.09.25-.22.25h-3.84c-.13 0-.23-.12-.22-.25Z"/><path fill="#D3D3D3" d="m15.31 12.21.76.44c.17.1.38.04.48-.13.1-.17.04-.38-.13-.48l-.77-.44a.348.348 0 0 0-.48.13c-.09.16-.03.38.14.48ZM13.17 13.6l.44.76c.09.17.04.38-.13.48-.17.09-.38.04-.48-.13l-.44-.76a.357.357 0 0 1 .13-.48c.17-.09.38-.04.48.13ZM8.65 14.97l-.76.44c-.17.09-.39.04-.48-.13-.1-.17-.04-.38.13-.48l.76-.44c.17-.09.38-.04.48.13.09.17.04.38-.13.48ZM13.82 16.45l.8-.35c.18-.08.38 0 .46.18.08.18 0 .38-.18.46l-.8.35c-.18.08-.38 0-.46-.18-.08-.18 0-.38.18-.46ZM18.06 15.59l-.07.87c-.01.19.13.36.32.37.19.01.36-.13.37-.32l.07-.87a.347.347 0 0 0-.32-.37.34.34 0 0 0-.37.32ZM10.99 16.78l-.76-.44a.354.354 0 0 1-.12-.48c.09-.17.31-.22.47-.13l.76.44c.17.1.23.31.13.48-.1.17-.31.23-.48.13ZM10.04 12.67l-.22.85c-.04.19.07.38.26.42.18.05.37-.06.42-.25l.22-.85a.357.357 0 0 0-.25-.43.372.372 0 0 0-.43.26ZM15.65 15.01l.22-.85c.05-.18.24-.3.43-.25.18.05.3.24.25.43l-.22.85c-.05.18-.24.3-.43.25a.357.357 0 0 1-.25-.43Z"/><path fill="#00D26A" d="M7.78 20.29a.78.78 0 1 0 0-1.56.78.78 0 0 0 0 1.56ZM12.88 21.18a.78.78 0 1 0 0-1.56.78.78 0 0 0 0 1.56ZM10.32 22.91a.78.78 0 1 1-1.56 0 .78.78 0 0 1 1.56 0Z"/></svg>
